Numix/32x32/categories/applications-geography.svg

<?xml version="1.0" encoding="UTF-8" standalone="no"?>
<svg
   xmlns:dc="http://purl.org/dc/elements/1.1/"
   xmlns:cc="http://creativecommons.org/ns#"
   xmlns:rdf="http://www.w3.org/1999/02/22-rdf-syntax-ns#"
   xmlns:svg="http://www.w3.org/2000/svg"
   xmlns="http://www.w3.org/2000/svg"
   xmlns:sodipodi="http://sodipodi.sourceforge.net/DTD/sodipodi-0.dtd"
   xmlns:inkscape="http://www.inkscape.org/namespaces/inkscape"
   width="32"
   height="32"
   viewBox="0 0 32 32"
   id="svg2"
   version="1.1"
   inkscape:version="0.91 r"
   sodipodi:docname="applications-geography.svg">
  <metadata
     id="metadata22">
    <rdf:RDF>
      <cc:Work
         rdf:about="">
        <dc:format>image/svg+xml</dc:format>
        <dc:type
           rdf:resource="http://purl.org/dc/dcmitype/StillImage" />
      </cc:Work>
    </rdf:RDF>
  </metadata>
  <sodipodi:namedview
     pagecolor="#ffffff"
     bordercolor="#666666"
     borderopacity="1"
     objecttolerance="10"
     gridtolerance="10"
     guidetolerance="10"
     inkscape:pageopacity="0"
     inkscape:pageshadow="2"
     inkscape:window-width="1920"
     inkscape:window-height="1056"
     id="namedview20"
     showgrid="true"
     inkscape:zoom="20.85965"
     inkscape:cx="13.372324"
     inkscape:cy="17.730012"
     inkscape:window-x="0"
     inkscape:window-y="24"
     inkscape:window-maximized="1"
     inkscape:current-layer="svg2">
    <inkscape:grid
       type="xygrid"
       id="grid4156" />
  </sodipodi:namedview>
  <defs
     id="defs4">
    <clipPath
       id="clip1">
      <path
         d="M 4.167969 4.167969 L 27.5 4.167969 L 27.5 27.5 L 4.167969 27.5 Z "
         id="path7" />
    </clipPath>
    <clipPath
       id="clip2">
      <path
         d="M 15.832031 27.011719 C 22.042969 27.011719 27.082031 21.953125 27.082031 15.75 C 27.082031 9.582031 22.042969 4.523438 15.832031 4.523438 C 9.667969 4.523438 4.585938 9.582031 4.585938 15.75 C 4.585938 21.953125 9.667969 27.011719 15.832031 27.011719 Z "
         id="path10" />
    </clipPath>
  </defs>
  <g
     id="g4150"
     transform="matrix(0.97015633,0,0,0.97030954,0.63855971,0.6380288)">
    <path
       id="path12"
       d="m 15.832031,3.464844 c -3.28125,0 -6.382812,1.289062 -8.726562,3.632812 C 4.757812,9.4375 3.464844,12.53125 3.464844,15.8125 c 0,6.832031 5.546875,12.386719 12.367187,12.386719 6.820313,0 12.371094,-5.554688 12.371094,-12.386719 0,-6.804688 -5.550781,-12.347656 -12.371094,-12.347656 z m 0,0.507812 c 6.539063,0 11.859375,5.3125 11.859375,11.839844 0,6.550781 -5.320312,11.878906 -11.859375,11.878906 -6.539062,0 -11.859375,-5.328125 -11.859375,-11.878906 0,-3.144531 1.242188,-6.109375 3.492188,-8.355469 2.25,-2.242187 5.21875,-3.484375 8.367187,-3.484375 z"
       style="fill:#78b2a3"
       inkscape:connector-curvature="0" />
    <g
       clip-path="url(#clip1)"
       id="g14"
       style="clip-rule:nonzero">
      <g
         clip-path="url(#clip2)"
         id="g16">
        <path
           id="path18"
           d="m 12.019531,5.558594 c -0.05469,0 -0.117187,0.019531 -0.179687,0.054687 0.144531,-0.042969 0.21875,-0.054687 0.179687,-0.054687 m 3.695313,0.71875 0.03906,-0.542969 -0.570312,0.035156 0.07422,0.507813 0.457032,0 m -6.4375,9.339844 C 9.164062,15.511719 9.238281,15.042969 9.238281,15.042969 c 0,0 -1.710937,-0.902344 -3.582031,-1.445313 -0.226562,-0.06641 -0.109375,-0.539062 0.113281,-0.71875 L 5.695312,12.371094 c -0.039062,-0.25 0.382813,-1.480469 0.800782,-1.585938 0.421875,-0.109375 -0.039063,0.722656 -0.039063,0.722656 l -0.414062,0.25 c 0,0 0.492187,0.578126 0.609375,0.578126 0.113281,0 0.304687,-0.289063 0.304687,-0.289063 L 6.421875,11.6875 6.917969,11.472656 6.949219,11.277344 7.03125,11.253906 7.851562,10.011719 C 8.417969,9.777344 9.113281,9.492188 9.203125,9.449219 9.355469,9.378906 10.421875,8.765625 10.613281,8.621094 10.804688,8.476562 11.222656,8.515625 11.375,8.515625 c 0.152344,0 0.378906,-0.074219 0.417969,-0.472656 0.03516,-0.398438 0.1875,-0.46875 0.304687,-0.359375 0.117188,0.105468 -0.117187,0.289062 0.152344,0.359375 0.265625,0.070312 0.496094,0.253906 0.6875,0.070312 0.136719,-0.128906 -0.05078,-0.277343 -0.175781,-0.390625 l 2.117187,0 L 15.105469,7.070312 14.613281,7 12.785156,6.816406 l 0,-0.214844 -0.148437,0.027344 C 12.835938,5.535156 14.011719,5.71875 13.125,5.089844 13.074219,5.050781 12.296875,6.308594 12.097656,6.28125 11.746094,6.238281 11.28125,6.234375 11.183594,6.347656 11.054688,6.503906 11.472656,5.820312 11.839844,5.613281 11.40625,5.742188 10.628906,5.347656 9.230469,6.339844 8.753906,6.671875 7.566406,8.03125 7.074219,8.550781 c -2.066407,2.441407 -2.234375,4.527344 -2.234375,4.621094 0,0.179687 0.441406,0.28125 0.476562,0.5 0.039063,0.214844 -0.722656,0.9375 -0.722656,1.296875 0,0.164062 -0.382812,1.964844 0.457031,4.21875 0.742188,2.136719 2.179688,4.023438 2.363281,4.140625 l 0.527344,-0.28125 c 0,0 -0.875,-1.550781 -0.910156,-1.695313 -0.039062,-0.144531 0.988281,-2.238281 1.484375,-2.160156 0.496094,0.06641 0.378906,0.210938 0.6875,0.03516 0.300781,-0.179687 0.496094,-1.660156 0.835937,-1.804687 0.34375,-0.144531 0.722657,-0.324219 0.6875,-0.6875 C 10.6875,16.375 9.390625,15.726562 9.277344,15.617188 M 17.546875,5.015625 16.515625,4.65625 16.707031,5.230469 17.546875,5.015625 m -3.847656,1.332031 c 0.113281,0 2.398437,-1.515625 2.171875,-1.550781 -0.230469,-0.035156 -0.269532,0 -0.882813,-0.070313 -0.605469,-0.070312 -1.253906,0.867188 -1.40625,1.007813 -0.152343,0.148437 -0.101562,0.613281 0.117188,0.613281 m 10.484375,10.875 0.296875,-0.378906 -0.296875,-0.105469 -0.21875,0.277344 -0.261719,0.378906 0.222656,0.105469 0.257813,-0.277344 m 1.292968,1.253906 -0.07422,-0.558593 -0.480469,0 -0.03516,0.417969 -0.445313,-0.06641 -0.109375,-0.453125 -0.21875,-0.140625 -0.261719,0.3125 -0.257812,-0.07031 -0.07422,0.242187 0.296875,0.07031 0,2.261719 1.042969,0.25 c -0.02734,0.04297 -0.04297,0.07812 -0.04687,0.09375 -0.07422,0.246093 0.292969,0.351562 0.550781,0.246093 0.09375,-0.03906 0.699219,-0.273437 0.886719,-0.722656 0.265625,-0.632813 0.441406,-1.542969 0.484375,-1.835937 l -0.117187,-0.253907 -0.738282,0.273438 -0.40625,-0.06641 0.0039,0 m -0.371093,-9.25 C 23.417969,6.667969 19.363281,4.996094 19.363281,4.996094 l -1.039062,0.546875 -0.148438,-0.242188 -0.371093,-0.136719 0,0.3125 0.332031,0.277344 -0.21875,0.105469 -0.847657,0.066406 -1.917968,1.042969 0.183594,0.835938 -0.222657,0.070312 -0.105469,0.171875 0.625,0.9375 0.03516,0.316406 -0.515625,0.101563 0,0.625 -0.296875,0.07031 0.03906,0.488282 -2.507812,1.738281 0.07422,0.96875 C 12.644531,13.539062 14.082031,15 14.082031,15 c 0,0 1.660157,0.06641 2.027344,-0.140625 0.371094,-0.207031 0.113281,0.207031 0.222656,0.3125 0.109375,0.105469 0.148438,0.832031 0.257813,0.90625 0.113281,0.06641 0,0.484375 0.148437,0.625 0.148438,0.140625 0.148438,1.804687 0.148438,1.804687 0,0 0.882812,1.496094 0.882812,1.878907 0,0.382812 -0.03906,0.34375 0.664063,0.3125 0.699218,-0.03516 0.847656,-0.3125 0.996094,-0.414063 0.148437,-0.105468 0.148437,-0.351562 0.292968,-0.558594 0.148438,-0.207031 0.40625,-1.003906 0.738282,-1.285156 0.332031,-0.28125 1.21875,-0.488281 1.289062,-0.972656 0.07422,-0.488281 0.410156,-0.871094 0.410156,-0.871094 l 1.589844,-1.6875 -0.04297,0.230469 -0.03906,0.867187 0.484375,-0.175781 -0.03906,-0.9375 -0.171875,-0.179687 0.02344,-0.02734 c 0,0 -0.109375,-0.207031 -0.257813,-0.207031 -0.144531,0 -1.03125,0.207031 -1.179687,0.171875 -0.148438,-0.03516 -0.773438,-1.703125 -0.882813,-1.773438 -0.113281,-0.07031 -0.8125,-1.214844 -0.8125,-1.214844 0,0 1.621094,1.945313 1.878907,2.710938 0.152343,0.441406 0.714843,0.02734 1.171874,-0.4375 l 0.121094,0.296875 0.292969,-0.06641 -0.03516,-0.351563 0.332031,0 0,0.523438 -0.113281,0.28125 -0.03906,0.445312 0.296875,0.28125 0.148438,-0.242187 0.476562,-0.453125 0.554688,-0.277344 0.148437,0.277344 0.07422,0.382812 -0.148437,0.417969 -0.296876,0.242187 -0.144531,0.625 0,0.3125 -0.332031,-0.207031 -0.03516,-0.660156 -0.484375,0.03516 -0.21875,0.589844 0.335937,0.488281 0.769532,0.101563 0.628906,-0.589844 0.07031,-1.144531 0.28125,-0.371094 c 0.179688,0.46875 0.3125,0.957031 0.3125,1.414062 0,0.496094 0.394532,-0.253906 0.203125,-1.773437 0,-0.0039 -0.308593,-3.617187 -1.976562,-5.289063 z m -7.375,1.496094 -1.988281,-0.07031 0.847656,-0.695313 0.441406,0 0.699219,0.488281 0,0.277344 m 2.4375,-0.242187 0,0.3125 -0.847657,0 0.07031,0.210937 -0.511719,0.06641 -0.03906,0.171876 -0.371094,-0.06641 -0.664062,-0.136719 0.113281,-0.175781 0.109375,-0.210937 0.371094,-0.382813 0.144531,0.28125 0.554687,-0.03516 0.292969,-0.3125 1.144531,0.207031 -0.367187,0.07031 m 0.07031,-0.453125 -0.441406,0.07031 -0.07422,-0.3125 0.554688,-0.070312 0.07422,-0.3125 0.402344,0.417968 -0.515625,0.207032 m 2.140625,10.808594 -0.257812,0.210937 0.03516,0.523437 0.332031,0 0,-0.453124 0.296875,-0.386719 0,-0.796875 -0.1875,-0.03516 -0.21875,0.9375 m -2.46875,-1.042969 c 0,0 -0.261718,0.07031 0.03516,0.179687 0.292969,0.101563 1.472657,-1.703125 1.472657,-1.703125 l -0.996094,0.625 -0.511719,0.898438 m -2.007812,6.664062 -0.222656,-0.210937 -0.441407,-0.06641 -0.07422,0.210937 -0.589843,-0.07422 -0.03906,-0.277344 -0.441406,0 -0.480469,0.277344 -0.84375,0 -0.07422,-0.207031 -1.363281,-0.144531 -0.21875,0.214844 -0.554687,-0.140626 -0.07422,-0.488281 -0.257813,-0.03906 -0.296874,0.527343 -0.992188,-0.03516 c 0.179688,0.08203 1.664062,0.96875 3.941406,1.15625 3.023438,0.242188 4.460938,-0.492187 4.460938,-0.492187 L 19.230469,26.5625 Z"
           style="fill:#78b2a3"
           inkscape:connector-curvature="0" />
      </g>
    </g>
  </g>
</svg>

<svg width="32" xmlns="http://www.w3.org/2000/svg" height="32" viewBox="0 0 32 32" xmlns:xlink="http://www.w3.org/1999/xlink">
<defs>
<clipPath id="clip1">
<path d="M 4.167969 4.167969 L 27.5 4.167969 L 27.5 27.5 L 4.167969 27.5 Z "/>
</clipPath>
<clipPath id="clip2">
<path d="M 15.832031 27.011719 C 22.042969 27.011719 27.082031 21.953125 27.082031 15.75 C 27.082031 9.582031 22.042969 4.523438 15.832031 4.523438 C 9.667969 4.523438 4.585938 9.582031 4.585938 15.75 C 4.585938 21.953125 9.667969 27.011719 15.832031 27.011719 Z "/>
</clipPath>
</defs>
<path style="fill:#78b2a3" d="M 15.832031 3.464844 C 12.550781 3.464844 9.449219 4.753906 7.105469 7.097656 C 4.757812 9.4375 3.464844 12.53125 3.464844 15.8125 C 3.464844 22.644531 9.011719 28.199219 15.832031 28.199219 C 22.652344 28.199219 28.203125 22.644531 28.203125 15.8125 C 28.203125 9.007812 22.652344 3.464844 15.832031 3.464844 Z M 15.832031 3.972656 C 22.371094 3.972656 27.691406 9.285156 27.691406 15.8125 C 27.691406 22.363281 22.371094 27.691406 15.832031 27.691406 C 9.292969 27.691406 3.972656 22.363281 3.972656 15.8125 C 3.972656 12.667969 5.214844 9.703125 7.464844 7.457031 C 9.714844 5.214844 12.683594 3.972656 15.832031 3.972656 Z "/>
<g style="clip-rule:nonzero;clip-path:url(#clip1)">
<g style="clip-path:url(#clip2)">
<path style="fill:#78b2a3" d="M 12.019531 5.558594 C 11.964844 5.558594 11.902344 5.578125 11.839844 5.613281 C 11.984375 5.570312 12.058594 5.558594 12.019531 5.558594 M 15.714844 6.277344 L 15.753906 5.734375 L 15.183594 5.769531 L 15.257812 6.277344 L 15.714844 6.277344 M 9.277344 15.617188 C 9.164062 15.511719 9.238281 15.042969 9.238281 15.042969 C 9.238281 15.042969 7.527344 14.140625 5.65625 13.597656 C 5.429688 13.53125 5.546875 13.058594 5.769531 12.878906 L 5.695312 12.371094 C 5.65625 12.121094 6.078125 10.890625 6.496094 10.785156 C 6.917969 10.675781 6.457031 11.507812 6.457031 11.507812 L 6.042969 11.757812 C 6.042969 11.757812 6.535156 12.335938 6.652344 12.335938 C 6.765625 12.335938 6.957031 12.046875 6.957031 12.046875 L 6.421875 11.6875 L 6.917969 11.472656 L 6.949219 11.277344 L 7.03125 11.253906 L 7.851562 10.011719 C 8.417969 9.777344 9.113281 9.492188 9.203125 9.449219 C 9.355469 9.378906 10.421875 8.765625 10.613281 8.621094 C 10.804688 8.476562 11.222656 8.515625 11.375 8.515625 C 11.527344 8.515625 11.753906 8.441406 11.792969 8.042969 C 11.828125 7.644531 11.980469 7.574219 12.097656 7.683594 C 12.214844 7.789062 11.980469 7.972656 12.25 8.042969 C 12.515625 8.113281 12.746094 8.296875 12.9375 8.113281 C 13.074219 7.984375 12.886719 7.835938 12.761719 7.722656 L 14.878906 7.722656 L 15.105469 7.070312 L 14.613281 7 L 12.785156 6.816406 L 12.785156 6.601562 L 12.636719 6.628906 C 12.835938 5.535156 14.011719 5.71875 13.125 5.089844 C 13.074219 5.050781 12.296875 6.308594 12.097656 6.28125 C 11.746094 6.238281 11.28125 6.234375 11.183594 6.347656 C 11.054688 6.503906 11.472656 5.820312 11.839844 5.613281 C 11.40625 5.742188 10.628906 5.347656 9.230469 6.339844 C 8.753906 6.671875 7.566406 8.03125 7.074219 8.550781 C 5.007812 10.992188 4.839844 13.078125 4.839844 13.171875 C 4.839844 13.351562 5.28125 13.453125 5.316406 13.671875 C 5.355469 13.886719 4.59375 14.609375 4.59375 14.96875 C 4.59375 15.132812 4.210938 16.933594 5.050781 19.1875 C 5.792969 21.324219 7.230469 23.210938 7.414062 23.328125 L 7.941406 23.046875 C 7.941406 23.046875 7.066406 21.496094 7.03125 21.351562 C 6.992188 21.207031 8.019531 19.113281 8.515625 19.191406 C 9.011719 19.257812 8.894531 19.402344 9.203125 19.226562 C 9.503906 19.046875 9.699219 17.566406 10.039062 17.421875 C 10.382812 17.277344 10.761719 17.097656 10.726562 16.734375 C 10.6875 16.375 9.390625 15.726562 9.277344 15.617188 M 17.546875 5.015625 L 16.515625 4.65625 L 16.707031 5.230469 L 17.546875 5.015625 M 13.699219 6.347656 C 13.8125 6.347656 16.097656 4.832031 15.871094 4.796875 C 15.640625 4.761719 15.601562 4.796875 14.988281 4.726562 C 14.382812 4.65625 13.734375 5.59375 13.582031 5.734375 C 13.429688 5.882812 13.480469 6.347656 13.699219 6.347656 M 24.183594 17.222656 L 24.480469 16.84375 L 24.183594 16.738281 L 23.964844 17.015625 L 23.703125 17.394531 L 23.925781 17.5 L 24.183594 17.222656 M 25.476562 18.476562 L 25.402344 17.917969 L 24.921875 17.917969 L 24.886719 18.335938 L 24.441406 18.269531 L 24.332031 17.816406 L 24.113281 17.675781 L 23.851562 17.988281 L 23.59375 17.917969 L 23.519531 18.160156 L 23.816406 18.230469 L 23.816406 20.492188 L 24.859375 20.742188 C 24.832031 20.785156 24.816406 20.820312 24.8125 20.835938 C 24.738281 21.082031 25.105469 21.1875 25.363281 21.082031 C 25.457031 21.042969 26.0625 20.808594 26.25 20.359375 C 26.515625 19.726562 26.691406 18.816406 26.734375 18.523438 L 26.617188 18.269531 L 25.878906 18.542969 L 25.472656 18.476562 L 25.476562 18.476562 M 25.105469 9.226562 C 23.417969 6.667969 19.363281 4.996094 19.363281 4.996094 L 18.324219 5.542969 L 18.175781 5.300781 L 17.804688 5.164062 L 17.804688 5.476562 L 18.136719 5.753906 L 17.917969 5.859375 L 17.070312 5.925781 L 15.152344 6.96875 L 15.335938 7.804688 L 15.113281 7.875 L 15.007812 8.046875 L 15.632812 8.984375 L 15.667969 9.300781 L 15.152344 9.402344 L 15.152344 10.027344 L 14.855469 10.097656 L 14.894531 10.585938 L 12.386719 12.324219 L 12.460938 13.292969 C 12.644531 13.539062 14.082031 15 14.082031 15 C 14.082031 15 15.742188 15.066406 16.109375 14.859375 C 16.480469 14.652344 16.222656 15.066406 16.332031 15.171875 C 16.441406 15.277344 16.480469 16.003906 16.589844 16.078125 C 16.703125 16.144531 16.589844 16.5625 16.738281 16.703125 C 16.886719 16.84375 16.886719 18.507812 16.886719 18.507812 C 16.886719 18.507812 17.769531 20.003906 17.769531 20.386719 C 17.769531 20.769531 17.730469 20.730469 18.433594 20.699219 C 19.132812 20.664062 19.28125 20.386719 19.429688 20.285156 C 19.578125 20.179688 19.578125 19.933594 19.722656 19.726562 C 19.871094 19.519531 20.128906 18.722656 20.460938 18.441406 C 20.792969 18.160156 21.679688 17.953125 21.75 17.46875 C 21.824219 16.980469 22.160156 16.597656 22.160156 16.597656 L 23.75 14.910156 L 23.707031 15.140625 L 23.667969 16.007812 L 24.152344 15.832031 L 24.113281 14.894531 L 23.941406 14.714844 L 23.964844 14.6875 C 23.964844 14.6875 23.855469 14.480469 23.707031 14.480469 C 23.5625 14.480469 22.675781 14.6875 22.527344 14.652344 C 22.378906 14.617188 21.753906 12.949219 21.644531 12.878906 C 21.53125 12.808594 20.832031 11.664062 20.832031 11.664062 C 20.832031 11.664062 22.453125 13.609375 22.710938 14.375 C 22.863281 14.816406 23.425781 14.402344 23.882812 13.9375 L 24.003906 14.234375 L 24.296875 14.167969 L 24.261719 13.816406 L 24.59375 13.816406 L 24.59375 14.339844 L 24.480469 14.621094 L 24.441406 15.066406 L 24.738281 15.347656 L 24.886719 15.105469 L 25.363281 14.652344 L 25.917969 14.375 L 26.066406 14.652344 L 26.140625 15.035156 L 25.992188 15.453125 L 25.695312 15.695312 L 25.550781 16.320312 L 25.550781 16.632812 L 25.21875 16.425781 L 25.183594 15.765625 L 24.699219 15.800781 L 24.480469 16.390625 L 24.816406 16.878906 L 25.585938 16.980469 L 26.214844 16.390625 L 26.285156 15.246094 L 26.566406 14.875 C 26.746094 15.34375 26.878906 15.832031 26.878906 16.289062 C 26.878906 16.785156 27.273438 16.035156 27.082031 14.515625 C 27.082031 14.511719 26.773438 10.898438 25.105469 9.226562 Z M 17.730469 10.722656 L 15.742188 10.652344 L 16.589844 9.957031 L 17.03125 9.957031 L 17.730469 10.445312 L 17.730469 10.722656 M 20.167969 10.480469 L 20.167969 10.792969 L 19.320312 10.792969 L 19.390625 11.003906 L 18.878906 11.070312 L 18.839844 11.242188 L 18.46875 11.175781 L 17.804688 11.039062 L 17.917969 10.863281 L 18.027344 10.652344 L 18.398438 10.269531 L 18.542969 10.550781 L 19.097656 10.515625 L 19.390625 10.203125 L 20.535156 10.410156 L 20.167969 10.480469 M 20.238281 10.027344 L 19.796875 10.097656 L 19.722656 9.785156 L 20.277344 9.714844 L 20.351562 9.402344 L 20.753906 9.820312 L 20.238281 10.027344 M 22.378906 20.835938 L 22.121094 21.046875 L 22.15625 21.570312 L 22.488281 21.570312 L 22.488281 21.117188 L 22.785156 20.730469 L 22.785156 19.933594 L 22.597656 19.898438 L 22.378906 20.835938 M 19.910156 19.792969 C 19.910156 19.792969 19.648438 19.863281 19.945312 19.972656 C 20.238281 20.074219 21.417969 18.269531 21.417969 18.269531 L 20.421875 18.894531 L 19.910156 19.792969 M 17.902344 26.457031 L 17.679688 26.246094 L 17.238281 26.179688 L 17.164062 26.390625 L 16.574219 26.316406 L 16.535156 26.039062 L 16.09375 26.039062 L 15.613281 26.316406 L 14.769531 26.316406 L 14.695312 26.109375 L 13.332031 25.964844 L 13.113281 26.179688 L 12.558594 26.039062 L 12.484375 25.550781 L 12.226562 25.511719 L 11.929688 26.039062 L 10.9375 26.003906 C 11.117188 26.085938 12.601562 26.972656 14.878906 27.160156 C 17.902344 27.402344 19.339844 26.667969 19.339844 26.667969 L 19.230469 26.5625 Z "/>
</g>
</g>
</svg>
